X:1
T:Fuggite o pianti
T:Fuggite o pianti
T:Giovanni Felice Sances
T:Source : Cantate et aria a voce sola---LibroIV---Venetia---A.Vincenti---1636. Editor : André Vierendeels 06/04/15).
T:Notes : Original clefs : C3, C4, F4, F4 Editorial accidentals above tha staff Original note values have been halved Square brackets indicate ligatures, dotted brackets indicate black notes BC without "alfabetto" : realised by the editor 
C:Giovanni Felice Sances
%%score [ 1 2 3 ] { 4 | 5 }
L:1/8
Q:1/4=120
M:3/2
K:C
V:1 treble nm="Alto" snm="A"
V:2 treble-8 nm="Tenor" snm="T"
V:3 bass nm="Bass" snm="B"
V:4 treble nm="MusicXML Part"
V:5 bass 
V:1
 z12 | z12 | z12 | z12 | z12 | z12 :: z12 | z12 | z12 | z12 | z12 | z12 | z12 | z12 | z12 | z12 | %16
w: ||||||||||||||||
 z12 | z12 :| E4 ^F4 G4 | A4 A4 G4 | ^F8 E4 | D4 D4 D4 | E8 F4 | G4 A4 D4 | F8 G4 | A4 A4 G4 | %26
w: ||A- mar non|vo- glio- un|cor di|sco- glio che|pien d'or-|go- glio, che|pien d'or-|go- glio mi|
 F8 F4 | E8 E4 | z12 | z12 | C4 D4 E4 | F8 F4 | D4 E4 F4 | G4 G4 F4 | E8 D4 | C4 C2 D2 B,2 C2 | %36
w: dia cor-|do- glio,|||a- mar non|vo- glio,-|a- moar non|vo- glio un|cor di|sco- glio, che pien d'or-|
 A,4 A4 G4 | F4 G4 A4 | A8 ^G4 | A12 |] %40
w: go- glio mi|dia _ cor-|do- *|glio.|
V:2
 A4 A4 B4 | c4 A4 d4 | c8 B4 | A8 G4 | F6 E2 D4 | E12 :: c4 c4 d4 | e4 c4 e4 | d8 d4 | e6 d2 c4 | %10
w: Fug- gi- te'o-|pian- ti tor-|na- to'e|can- ti|li- be- ro|son,|non cic- ca'o|stol- ta- ma|d'a- mor|sciol- ta e|
w: L'an- ti- ca|fe- de cal-|co con|pie- de-|non a- mo|piu,|non e'l mio|co- re pien|di do-|lo- re co-|
w: A- man- ti|scioc- chi stan-|ca- te|gl'oc- chi|in la- gri-|mar,|ch'in lie- to|sta- to ben|con- si-|glia- to non|
 c4 B8 | A8 d4 | d4 ^c8 |"^-natural" d6 d2 c4 | c4 B8 | c6 B2 A4 | A4 G4 A4 | %17
w: la ra-|gion no|cie- ca'o|stol- ta ma|d'a- mor|sciol- ta e|la ra- *|
w: me gia|fu, non|e'l mio|co- re pien|di do-|lo- re co|me gia _|
w: vuo pe-|nar, ch'in|lie- to|sta- to ben|con- si-|glia- to non|vuo pe- *|
"^AMAR\n NON\nVOGLIO" A12 :| z12 | A4 B4 ^c4 |"^-natural" d4 d4 c4 | B8 A4 | G8 F4 | E4 F4 G4 | %24
w: gion.||A- mar non|vo- glio un|cor di|sco- glio|che pien d'or-|
w: fu.|||||||
w: nar.|||||||
 A6 G2 A2 B2 | c4 c4 c4 | c8 B4 | c8 c4 | G4 A4 B4 | c8 c4 | A4 B4 c4 | d4 d4 c4 | B8 A4 | %33
w: go- * * *|* glio mi|dia cor-|do- glio,|a- mar non|vo- glio,|a- mar non|vo- glio un|cor di|
w: |||||||||
w: |||||||||
 G4 A4 B4 | c8 G4 | A6 G2 A2 B2 | c4 c4 ^c4 |"^-natural" d8 c4 | B12 | A12 |] %40
w: sco- glio che|pien d'or-|go- * * *|* glio mi|dia cor-|do-|glio.|
w: |||||||
w: |||||||
V:3
 z12 | z12 | z12 | z12 | z12 | z12 :: z12 | z12 | z12 | z12 | z12 | z12 | z12 | z12 | z12 | z12 | %16
w: ||||||||||||||||
 z12 | z12 :| z12 | z12 | D,4 E,4 ^F,4 |"^-natural" G,4 G,4 F,4 | E,8 D,4 | C,4 C,4 B,,4 | %24
w: ||||A- mar non|vo- glio un|cor di|sco- glio che|
 A,,8 G,,4 | F,,4 F,,4 E,,4 | F,,8 G,,4 | C,8 C,4 | z12 | C,4 D,4 E,4 | F,8 F,4 | D,4 E,4 F,4 | %32
w: pien d'or-|go- glio mi|dia cor-|do- glio,||a- mar non|vo- glio,|a- mar non|
 G,4 G,4 F,4 | E,8 D,4 | C,4 C,4 B,,4 | A,,8 G,,4 | F,,4 F,,4 E,,4 | D,,8 D,,4 | E,,12 | A,,12 |] %40
w: vo- glio un|cor di|sco- glio che|pien d'or-|go- glio mi|dia cor-|do-|glio.|
V:4
 [Ec]8 [EB]4 | [Ec]4 [Ad]8 | [Ac]8 [GB]4 | [Ec]8 [GB]4 | [CA]8 [B,G]4 | [CG]12 :: [EG]8 [DG]4 | %7
 [EG]8 [Ac]4 | [DB]12 | [EG]8 [DG]4 | [Gc]4 [^GB]8 | [Ec]8 [DA]4 | [DB]4 [EA]8 | [^FA]8 [CG]4 | %14
 [CA]4 [DG]8 | [EG]8 [^FA]4 | [Ac]4 [GB]4 [DA]4 | [^CE]12 :| z12 | z12 | z12 | z12 | z12 | z12 | %24
 z12 | z12 | z12 | z12 | z12 | z12 | z12 | z12 | z12 | z12 | z12 | z12 | z12 | z12 | z12 | z12 |] %40
V:5
 A,8 ^G,4 | A,4 F,4 D,4 | E,12 | A,,8 E,,4 | F,,8 G,,4 | C,12 :: C8 B,4 | C4 E,4 F,4 | G,8 G,,4 | %9
 C,8 D,4 | E,12 | A,8 ^F,4 | G,4 A,4 A,,4 | D,8 E,4 | F,4 G,4 G,,4 | C,8 D,4 | E,8 E,,4 | A,,12 :| %18
 z12 | z12 | z12 | z12 | z12 | z12 | z12 | z12 | z12 | z12 | z12 | z12 | z12 | z12 | z12 | z12 | %34
 z12 | z12 | z12 | z12 | z12 | z12 |] %40

